icons/zenhub-logo.svg

<?xml version="1.0" encoding="UTF-8"?>
<svg width="512px" height="112px" viewBox="0 0 512 112" version="1.1" xmlns="http://www.w3.org/2000/svg" xmlns:xlink="http://www.w3.org/1999/xlink" preserveAspectRatio="xMidYMid">
    <g>
        <path d="M117.260833,31.0292717 C139.059943,31.0343769 155.604123,47.8984814 155.605824,69.8524484 C155.605824,72.23997 155.449266,74.9440126 155.131043,76.2152019 L155.131043,76.2152019 L98.6507573,76.2152019 C100.561796,86.8765152 108.675625,94.5121597 120.448165,94.5121597 C128.085512,94.5121597 134.598017,91.1682681 139.061644,86.554889 L139.061644,86.554889 L149.08481,99.7602826 C143.358502,106.437855 132.537227,111.689382 119.655161,111.689382 C95.9501182,111.689382 78.7660891,93.5608949 78.7626857,71.438457 C78.7626857,49.1628638 95.3085675,31.0292717 117.260833,31.0292717 L117.260833,31.0292717 Z M452.18263,0 L452.18263,41.5221141 C457.747274,34.9976967 465.544582,31.0190613 475.406084,31.0190613 L475.406084,31.0190613 C495.61408,31.0258682 512.001702,47.57175 512,71.276793 C512,94.3470923 496.57045,111.685978 475.406084,111.685978 C465.388023,111.685978 457.594118,108.025566 452.18263,101.821073 L452.18263,101.821073 L452.18263,109.455016 L432.772743,109.455016 L432.772743,0 L452.18263,0 Z M368.176926,33.2585327 L368.176926,74.4573189 C368.176926,85.5900103 374.69794,93.0707978 384.404585,93.0707978 C394.11123,93.0707978 400.632244,85.5917121 400.632244,74.4573189 L400.632244,74.4573189 L400.632244,33.2585327 L420.038728,33.2585327 L420.038728,75.903786 C420.038728,97.2298161 405.876964,111.39158 384.39948,111.39158 C362.918593,111.39158 348.756829,97.2213075 348.756829,75.903786 L348.756829,75.903786 L348.756829,33.2585327 L368.176926,33.2585327 Z M77.6446517,7.4909978 L77.6446517,26.1027749 L25.617783,90.6883814 L78.7456684,90.6883814 L78.7456684,109.458419 L0.00680690396,109.458419 L0.00680690396,90.6883814 L0,90.6883814 L51.863503,26.1027749 L1.11463052,26.1027749 L1.11463052,7.4909978 L77.6446517,7.4909978 Z M266.82553,7.4841909 L266.82553,48.0431281 L315.341738,48.0431281 L315.341738,7.4841909 L335.38807,7.4841909 L335.38807,109.458419 L315.341738,109.458419 L315.341738,66.6600104 L266.82553,66.6600104 L266.82553,109.458419 L246.932353,109.458419 L246.932353,7.4841909 L266.82553,7.4841909 Z M200.384,30.923 L201.002652,30.9280052 C221.537515,31.2076485 235.0322,45.2953682 235.033885,66.4064533 L235.033885,66.4064533 L235.033885,109.051707 L216.161744,109.051707 L216.161744,67.8359031 C216.161744,56.6981065 209.819411,49.2224242 200.385042,49.2224242 C190.948971,49.2224242 184.603235,56.7015099 184.603235,67.8359031 L184.603235,67.8359031 L184.603235,109.051707 L165.731094,109.051707 L165.731094,66.4064533 C165.731094,45.094037 179.501461,30.9237647 200.390147,30.9237647 L200.384,30.923 Z M472.387222,49.3194226 C460.776346,49.3194226 452.18263,59.1877316 452.18263,71.4350536 C452.18263,83.685779 460.774644,93.3907223 472.387222,93.3907223 C484.159763,93.3907223 492.591815,83.6874807 492.591815,71.4350536 C492.591815,59.1843282 484.159763,49.3194226 472.387222,49.3194226 Z M117.587564,47.5734517 C107.879217,47.5734517 101.205048,54.2561297 98.9740852,63.9593713 L98.9740852,63.9593713 L135.72456,63.9593713 C133.498702,53.1397975 126.657764,47.5734517 117.587564,47.5734517 Z" fill="#323F48"></path>
    </g>
</svg>

<svg xmlns="http://www.w3.org/2000/svg" viewBox="0 0 512 111.689">
  <path fill="#323f48" d="M117.26 31.03c21.8.004 38.344 16.868 38.346 38.822 0 2.388-.157 5.092-.475 6.363h-56.48c1.91 10.662 10.025 18.297 21.797 18.297 7.638 0 14.15-3.344 18.614-7.957l10.023 13.205c-5.727 6.678-16.548 11.93-29.43 11.93-23.705 0-40.889-18.13-40.892-40.252 0-22.275 16.546-40.409 38.498-40.409zM452.184 0v41.522c5.564-6.524 13.362-10.503 23.223-10.503 20.208.007 36.596 16.553 36.594 40.258 0 23.07-15.43 40.409-36.594 40.409-10.018 0-17.812-3.66-23.223-9.865v7.634h-19.41V0zm-84.006 33.259v41.198c0 11.133 6.52 18.614 16.228 18.614 9.706 0 16.227-7.48 16.227-18.614V33.26h19.407v42.645c0 21.326-14.162 35.488-35.64 35.488-21.48 0-35.642-14.17-35.642-35.488V33.259zM77.645 7.49v18.612L25.618 90.688h53.128v18.77H.006v-18.77H0l51.864-64.585H1.114V7.49zm189.18-.007v40.56h48.517V7.483h20.046v101.974h-20.046V66.66h-48.516v42.798h-19.894V7.484zm-66.441 23.439.619.005c20.535.28 34.03 14.367 34.03 35.478v42.646h-18.871V67.836c0-11.138-6.343-18.614-15.777-18.614-9.436 0-15.782 7.48-15.782 18.614v41.216h-18.872V66.406c0-21.312 13.77-35.482 34.66-35.482zm272.003 18.396c-11.61 0-20.204 9.869-20.204 22.116 0 12.25 8.592 21.956 20.204 21.956 11.773 0 20.205-9.704 20.205-21.956 0-12.25-8.432-22.116-20.205-22.116zm-354.8-1.746c-9.708 0-16.382 6.683-18.613 16.386h36.75c-2.225-10.82-9.066-16.386-18.136-16.386z"/>
</svg>
